X: 1
T: Br\"annvinsmarschen
C: Trad.
R: march, snoa
S: http://www.nyckelharpa.org/archive/written-music/american-allspel-list/ 2022/9/16
Z: 2022 John Chambers <jc:trillian.mit.edu>
M: 2/4
L: 1/16
Q: 1/4=80
K: C
A2 \
| c2c2 (GE)Gc | e2e2 (cG)ce | g2ge (fe)dc | B2dB G2Bd |\
| f2fe (de)dc | (Bc)BA   G4 | G2B2  B2AB  | c6 :|
|: eg \
| c'2c'g e2ge | c2ec (GA)Bc | d2dc (Bc)de | f4 (fe)fg |\
| a2af   d2fd | B2dB  G4    | G2B2  B2AB  | c6 :|
